//  ____                 _                           ____           
// |  _ \ __ _ _ __   __| | __ _ _ __ ___  _   _ ___|  _ \ _____  __
// | |_) / _` | '_ \ / _` |/ _` | '_ ` _ \| | | / __| |_) / _ \ \/ /
// |  __/ (_| | | | | (_| | (_| | | | | | | |_| \__ \  _ <  __/>  < 
// |_|   \__,_|_| |_|\__,_|\__,_|_| |_| |_|\__,_|___/_| \_\___/_/\_\

// Classic 80s Sounds

setcpm(124/4)

$tomfill80s: note("[g2 g2 ~ e2] [e2 ~ c2 c2] [~ g1 g1 ~] [~ ~ ~ ~]")
  .sound('linndrum_mt')
  .room(0.8)
